!!!OTL: Graf und Nonne (Die Nonne) Stand ich auf hohem Berge,
!!!ARE: Europa, Mitteleuropa, Deutschland
!!!YOR: 8, S. 30
!!    1818 gedruckt in Berlin
!!!SCT: Q0155B
!!!YEM: Copyright 1995, estate of Helmut Schaffrath.
**kern
*ICvox
*Ivox
*M2/4
*k[f#]
*G:
{8g
=1
8b
8g
8dd
8b
=2
4b
8a}
{8g
=3
8b
8g
8dd
8b
=4
4a
8r}
{8g
=5
8dd
8dd
8dd
8dd
=6
8dd
8b
4g
=7
4cc
4ee
=8
8dd
8b
8g}
{8dd
=9
8dd
8cc
8a
8f#
=10
4g
8r}
==
!!!AGN: Ballade, Standesunterschied, vergebliche Werbung, Liebe, Klage
!! Anhaengsel an der dritten Zeile.
!!!ONB: ESAC (Essen Associative Code) Database: BALLADE
!!!AMT: simple duple
!!!AIN: vox
!!!EED: Helmut Schaffrath
!!!EEV: 1.0
*-
